X:1
T:De profundis
T:Constantijn Huygens
T:De profundis
T:Psalmus 130:1,2,3,5
C:Constantijn Huygens
%%score 1 { ( 2 4 ) | 3 }
L:1/8
Q:1/4=90
M:4/4
K:D
V:1 treble nm="Soprano" snm="S"
V:2 treble nm="Organ" snm="Org."
V:4 treble 
V:3 bass 
V:1
 z4 D4- | D4 D4 | D8 | D4 D4- | D4 A,4 | D8 | C4 D4 | E8 | F4 z2 F2 | G4 A4 | B6 c2 | d6 e2 | %12
w: De|_ pro-|fun-|dis, de|_ pro-|fun-|dis cla-|ma-|vi, cla-|ma- vi|ad te,|Do- mi-|
 c2 e>e ee f2 | ^dd e4- eA | ^G2 A2 A2 G2 | A8 :: F4 B4 | A4 F4 | A4 A4 | B4 c4 | d8 | c8 | %22
w: ne; Do- mi- ne, ex- au-|di, ex- au- * di|vo- cem me- *|am.|Fi- ant|au- res|tu- ae|in- ten-|den-|tes,|
 z4 f2 e2 | d4 c2 c2 | B6 A2 | G3 G F2 F2 | E4 D4 | G6 A2 | B3 A/B/ F2 ^G2 | !fermata!A8 :| %30
w: in- ten-|den- tes in|vo- cem|de- pre- ca- ti-|o- nis|me- *|* * * * ae.|_|
[K:F] D4- DD E>E | F2 F2 E2 A2 | A3 G A4 | c2 c/c/ z c2 cc | d2 z2 e2 z2 | A3 A d4- | d4 ^c4 | %37
w: Si _ i- ni- qui-|ta- tes ob- ser-|va- ve- ris,|Do- mi- ne, Do- mi- ne,|quis, quis|su- sti- ne-|* bit?|
 z8 ||[K:D][M:3/4] d2 d2 d2 | B2 BB A2 | F2 z F G2 | G2 z2 z G | A4 B2 | =c4 dd | %44
w: |Spe- ra- vit|a- ni- ma me-|a, spe- ra-|vit, spe-|ra- vit|a- ni- ma|
[M:4/4] e2 Ad d3 c | d8 || z4 D4- | D4 D4 | D8 | D4 D4- | D4 A,4 | D8 | C4 D4 | E8 | F4 z2 F2 | %55
w: me- a in Do- mi-|no.|De|_ pro-|fun-|dis, de|_ pro-|fun-|dis cla-|ma-|vi, cla-|
 G4 A4 | B6 c2 | d6 e2 | c2 e>e ee f2 | ^dd e4- eA | ^G2 A2 A2 G2 | A8 | F4 B4 | A4 F4 | A4 A4 | %65
w: ma- vi|ad te,|Do- mi-|ne; Do- mi- ne, ex- au-|di, ex- au- * di|vo- cem me- *|am.|Fi- ant|au- res|tu- ae|
 B4 c4 | d8 | c8 | z4 f2 e2 | d4 c2 c2 | B6 A2 | G3 G F2 F2 | E4 D4 | G6 A2 | B3 A/B/ F2 ^G2 | %75
w: in- ten-|den-|tes,|in- ten-|den- tes in|vo- cem|de- pre- ca- ti-|o- nis|me- *|* * * * ae.|
 !fermata!A8 |] %76
w: _|
V:2
 z4 [A,D-]4 | D8- | [G,B,D-]8 | [F,A,D-]8 | [A,-D]4 [A,E]4 | [G,D]8 | [A,E]4 [A,D]4 | %7
 [G,B,E]4 [F,^A,C]4 | F2 E2 D2 C2 | D2 E2 F4 | [B,EG]4 [EA]4 | [DFB]4 [^GB]4 | [CEA]4 [FAc]4 | %13
 [FB]2 [^GB]2 [Ac]2 [EA]2 | E6 D2 | [A,CE]8 :: [DF]8 | [DF]8 | [A,-C-E]4 [A,C]4 | E8 | [DFB]8 | %21
 [F^A]8 | [FB]4 [FA]4 | [FA]8 | F4 E4 | D8 | B,8 | E6 F2 | [GB]8- | [GB]4 [FA]4 :|[K:F] A,8 | %31
 [A,DF]4 [A,CE]4 | [DG]4 [A,^CE]4 | [FA]8 | [G=B]4 [Ac]4 | [FA]4 [B,DGB]4 | [A,E]8 | z8 || %38
[K:D][M:3/4] A2 B2 A2 | G4 F2 | D4 E2- | E6- | E6- | [=CEA]4 [DFB]2 |[M:4/4] A8 | A8 || %46
 z4 [A,D-]4 | D8- | [G,B,D-]8 | [F,A,D-]8 | [A,-D]4 [A,E]4 | [G,D]8 | [A,E]4 [A,D]4 | %53
 [G,B,E]4 [F,^A,C]4 | F2 E2 D2 C2 | D2 E2 F4 | [B,EG]4 [EA]4 | [DFB]4 [^GB]4 | [CEA]4 [FAc]4 | %59
 [FB]2 [^GB]2 [Ac]2 [EA]2 | E6 D2 | [A,CE]8 | [DF]8 | [DF]8 | [A,-C-E]4 [A,C]4 | E8 | [DFB]8 | %67
 [F^A]8 | [FB]4 [FA]4 | [FA]8 | F4 E4 | D8 | B,8 | E6 F2 | [GB]8- | [GB]4 [FA]4 |] %76
V:3
 D,8 | B,,4 F,,4 | G,,8 | D,,4 D,4- | D,4 C,4 | B,,8 | A,,4 F,4 | E,8 | B,6 A,2 | G,6 F,2 | %10
 E,4 D,2 C,2 | B,,2 B,2 ^G,4 | A,6 F,2 | B,2 ^G,2 A,2 A,,2 | E,4 E,,4 | A,,8 :: D,4 B,,4 | %17
 F,4 B,4 | A,4 F,4 | G,2 ^G,2 A,2 ^A,2 | B,4 B,,4 | F,4 F2 E2 | D4 C4 | F,6 E,2 | D,4 C,4 | %25
 B,,4 A,,4 | G,,4 F,,4 | E,,8 | [D,,G,]8 | D,8 :|[K:F] D,4 ^C,4 | D,4 C,4 | =B,,2 _B,,2 A,,4 | %33
 F,4 C,4 | G,2 E,4 A,2 | D2 C2 B,2 G,2 | A,8 | z8 ||[K:D][M:3/4] D,2 B,,2 F,,2 | G,,4 A,,2 | %40
 B,,4 E,2 | =C,4 B,,2 | A,,2 ^G,,4 | A,,4 B,,2 |[M:4/4] C,2 D,2 A,,4 | D,8 || D,8 | B,,4 F,,4 | %48
 G,,8 | D,,4 D,4- | D,4 C,4 | B,,8 | A,,4 F,4 | E,8 | B,6 A,2 | G,6 F,2 | E,4 D,2 C,2 | %57
 B,,2 B,2 ^G,4 | A,6 F,2 | B,2 ^G,2 A,2 A,,2 | E,4 E,,4 | A,,8 | D,4 B,,4 | F,4 B,4 | A,4 F,4 | %65
 G,2 ^G,2 A,2 ^A,2 | B,4 B,,4 | F,4 F2 E2 | D4 C4 | F,6 E,2 | D,4 C,4 | B,,4 A,,4 | G,,4 F,,4 | %73
 E,,8 | [D,,G,]8 | D,8 |] %76
V:4
 x8 | G,4 A,4 | x8 | x8 | x8 | x8 | x8 | x8 | D8 | [G,B,]4 [A,D]4 | x8 | x8 | x8 | x8 | B,8 | x8 :: %16
 x8 | x8 | x8 | B,4 [CF]4 | x8 | x8 | x8 | A,2 B,2 C4 | B,4 A,4 | G,4 A,4 | G,4 F,4 | B,4 C2 D2 | %28
 x8 | x8 :|[K:F] F,4 E,4 | x8 | x8 | x8 | x8 | x8 | x8 | x8 ||[K:D][M:3/4] F6 | D6 | B,6 | %41
 =C4 B,2 | =C2 B,4 | x6 |[M:4/4] E2 F4 G2 | F8 || x8 | G,4 A,4 | x8 | x8 | x8 | x8 | x8 | x8 | D8 | %55
 [G,B,]4 [A,D]4 | x8 | x8 | x8 | x8 | B,8 | x8 | x8 | x8 | x8 | B,4 [CF]4 | x8 | x8 | x8 | %69
 A,2 B,2 C4 | B,4 A,4 | G,4 A,4 | G,4 F,4 | B,4 C2 D2 | x8 | x8 |] %76

